X: 1003
T: Drill: III Block Chords
C: Grossi
M: 4/4
L: 1/4
%%staves (S1V1 S1V2) | (S2V1 S2V2)
V: S1V1 clef=treble
V: S1V2
V: S2V1 clef=bass
V: S2V2
K: C
[V: S1V1] [Q:1/4=72] F G A B | c B A G | F4 |]
[V: S1V2] D E F G | A G F E | D4 |]
[V: S2V1] B, C D E | F E D C | B,4 |]
[V: S2V2] G, A, B, C | D C B, A, | G,4 |]

